X: 1
T: Coalface, The
M: 4/4
L: 1/8
R: reel
K: Ador
|: ~A3e cBAG | EGGG BAGA | ~E3A GABd | egba gedB |
~A3e cBAG | EGGG BAGA | EAAB GABd |1 egdB ~A4 :|2 egdB ~A3d||
|: eaga beee | gedg BGGG | eaga bega | bgab a2gf |
eaga beee | gedg BGGG | EAAB GABd | egdB ~A4 :|
